X:1095
T:Sweat House, The
R:reel
C:Joe Liddy (1906-1992)
D:Dervish: Midsummer's Night
Z:id:hn-reel-1095
M:C|
L:1/8
K:Edor
E2FD E2FA | BdAB defd | edfe dBAd | BdAF DEFD |
E2FD E2FA | BdAB defd | edfe dBAF |1 DEFD E3D :|2 DEFD E3A ||
|: Be~e2 fded | BdAB dAFA | Beef dcde | fdad gefd |
Beeg fded | BdAB defd | edfe dBAF |1 DEFD E3A :|2 DEFD E3D ||

